public/Icons/sort.svg

<svg fill="none" height="800" viewBox="0 0 24 24" width="800" xmlns="http://www.w3.org/2000/svg"><path d="m4 17h6m-6-5h9m5-1v8m0 0 3-3m-3 3-3-3m-11-9h12" stroke="#183331" stroke-linecap="round" stroke-linejoin="round" stroke-width="2"/></svg>

<!DOCTYPE svg PUBLIC "-//W3C//DTD SVG 1.1//EN" "http://www.w3.org/Graphics/SVG/1.1/DTD/svg11.dtd">
<!-- Uploaded to: SVG Repo, www.svgrepo.com, Transformed by: SVG Repo Mixer Tools -->
<svg width="800px" height="800px" viewBox="0 0 24 24" fill="none" xmlns="http://www.w3.org/2000/svg">
<g id="SVGRepo_bgCarrier" stroke-width="0"/>
<g id="SVGRepo_tracerCarrier" stroke-linecap="round" stroke-linejoin="round"/>
<g id="SVGRepo_iconCarrier"> <g id="Edit / Sort_Ascending"> <path id="Vector" d="M4 17H10M4 12H13M18 11V19M18 19L21 16M18 19L15 16M4 7H16" stroke="#183331" stroke-width="2" stroke-linecap="round" stroke-linejoin="round"/> </g> </g>
</svg>
